pic/icon-spotlight.svg

<svg xmlns="http://www.w3.org/2000/svg" width="30" height="30" viewBox="0 0 30 30">
  <path fill-rule="evenodd" d="M25,0 C27.7614237,0 30,2.23857625 30,5 L30,25 C30,27.7614237 27.7614237,30 25,30 L5,30 C2.23857625,30 0,27.7614237 0,25 L0,5 C0,2.23857625 2.23857625,0 5,0 L25,0 Z M13,5 C9.13400675,5 6,8.13400675 6,12 C6,14.7024709 7.53143932,17.047255 9.77326292,18.2142604 L10.0076761,18.3307502 L10.0230154,18.5717708 C10.3139257,22.1703334 13.3265108,25 17,25 C20.8659932,25 24,21.8659932 24,18 C24,15.2043405 22.3611232,12.7914611 19.9923239,11.6692498 C19.8196406,7.95682698 16.7551223,5 13,5 Z M17,11 C17.9514077,11 18.8584838,11.1898065 19.685862,11.5333044 L19.9923239,11.6692498 L19.9980739,11.8341521 L20,12 C20,15.8659932 16.8659932,19 13,19 C11.9296663,19 10.9154399,18.7597761 10.0076761,18.3307502 C10.0025776,18.2211399 10,18.110871 10,18 C10,14.1340068 13.1340068,11 17,11 Z"/>
</svg>

<svg xmlns="http://www.w3.org/2000/svg" width="30" height="30" viewBox="0 0 30 30"><path fill-rule="evenodd" d="M25 0a5 5 0 0 1 5 5v20a5 5 0 0 1-5 5H5a5 5 0 0 1-5-5V5a5 5 0 0 1 5-5h20ZM13 5a7 7 0 0 0-3.227 13.214l.235.117.015.24a7 7 0 1 0 9.97-6.902A7 7 0 0 0 13 5Zm4 6c.951 0 1.858.19 2.686.533l.306.136.006.165L20 12a7 7 0 0 1-9.992 6.33A7 7 0 0 1 17 11Z"/></svg>
